X:1
T:Gracious Spirit, 77.75
T:Gracious Spirit, 77.75
T:Scott Werdebaugh, 1982
T:© 1982 Scott Werdebaugh &amp; New Heart Music - May be freely copied and used for Christian worship or devotions with no alterations. All Other Rights Reserved.
C:Scott Werdebaugh, 1982
Z:© 1982 Scott Werdebaugh & New Heart Music - May be freely copied and used for
Z:Christian worship or devotions with no alterations. All Other Rights Reserved.
%%score ( 1 2 ) ( 3 4 )
L:1/8
Q:1/4=110
M:4/4
K:C
V:1 treble 
V:2 treble 
V:3 bass 
V:4 bass 
V:1
 [CE]2 [CE]2 [DG]2 [DG]2 | [Ec]2 [Ec]2 [EG]4 | [CA]2 [FA]2 [EG]2 [Gc]2 | [D^FB]3 [DFA] G4 [D=F]2 | %4
 [CE]2 [CEG]2 [CFA]2 [CEG]2 | [B,DG]3 [B,DF] [CE]4 | [CE]2 [CEG]2 [CFA]2 [DFB]2 | [Gc]8 x4 |] %8
V:2
 x8 | x8 | x8 | x4 D2- x4 | x8 | x8 | x8 | (F2 D2 E4) x4 |] %8
V:3
 [C,G,]2 [C,G,]2 [G,,G,B,]2 [G,,G,B,]2 | [A,,A,C]2 [A,,A,C]2 (C2 B,2) | %2
 [F,A,]2 [F,C]2 [C,G,C]2 [C,E,C]2 | [D,A,]3 [D,C] [G,,G,B,]4 x2 | %4
 [C,G,]2 [C,E,G,]2 [F,A,]2 [C,E,G,]2 | [G,,D,G,]3 [G,,B,,G,] [C,G,]4 | %6
 [C,G,]2 [C,E,G,]2 [F,A,]2 [G,,G,B,]2 | [G,C]8 [C,,C,]4 |] %8
V:4
 x8 | x4 [G,,G,]4 | x8 | x10 | x8 | x8 | x8 | C,4- x8 |] %8

